icons/icon-face@2x.svg

<svg width="30" height="30" viewBox="0 0 30 30" fill="none" xmlns="http://www.w3.org/2000/svg">
<path d="M28.3437 0H1.65625C0.74125 0 0 0.74125 0 1.65625V28.345C0 29.2588 0.74125 30 1.65625 30H16.025V18.3825H12.115V13.855H16.025V10.5163C16.025 6.64125 18.3913 4.53125 21.8488 4.53125C23.505 4.53125 24.9275 4.655 25.3425 4.71V8.76L22.945 8.76125C21.065 8.76125 20.7013 9.655 20.7013 10.965V13.8563H25.185L24.6012 18.3837H20.7013V30H28.3463C29.2588 30 30 29.2587 30 28.3437V1.65625C30 0.74125 29.2587 0 28.3437 0Z" fill="#333333"/>
</svg>

<svg width="30" height="30" fill="none" xmlns="http://www.w3.org/2000/svg"><path d="M28.344 0H1.656C.741 0 0 .741 0 1.656v26.689C0 29.259.741 30 1.656 30h14.369V18.383h-3.91v-4.528h3.91v-3.339c0-3.875 2.366-5.985 5.824-5.985 1.656 0 3.078.124 3.494.179v4.05l-2.398.001c-1.88 0-2.244.894-2.244 2.204v2.891h4.484l-.584 4.528h-3.9V30h7.645C29.26 30 30 29.259 30 28.344V1.656C30 .741 29.259 0 28.344 0Z" fill="#333"/></svg>
